svg/aws-secrets-manager.svg

<?xml version="1.0" encoding="UTF-8"?>
<svg xmlns="http://www.w3.org/2000/svg" xmlns:xlink="http://www.w3.org/1999/xlink" width="32" height="32" viewBox="0 0 32 32">
<defs>
<linearGradient id="linear-pattern-0" gradientUnits="userSpaceOnUse" x1="0" y1="1" x2="1" y2="0" gradientTransform="matrix(32, 0, 0, 32, 0, 0)">
<stop offset="0" stop-color="rgb(74.117647%, 3.137255%, 8.627451%)" stop-opacity="1"/>
<stop offset="1" stop-color="rgb(100%, 32.156863%, 32.156863%)" stop-opacity="1"/>
</linearGradient>
</defs>
<rect x="-3.2" y="-3.2" width="38.4" height="38.4" fill="url(#linear-pattern-0)"/>
<path fill-rule="evenodd" fill="rgb(100%, 100%, 100%)" fill-opacity="1" d="M 15.621094 17.320312 C 15.617188 17.457031 15.691406 17.585938 15.808594 17.65625 C 15.925781 17.726562 16.074219 17.726562 16.191406 17.65625 C 16.3125 17.589844 16.382812 17.457031 16.378906 17.320312 C 16.378906 17.21875 16.339844 17.121094 16.269531 17.050781 C 16.117188 16.90625 15.878906 16.90625 15.730469 17.050781 C 15.660156 17.125 15.621094 17.21875 15.621094 17.320312 M 14.621094 17.320312 C 14.621094 16.558594 15.238281 15.941406 16 15.941406 C 16.761719 15.941406 17.378906 16.558594 17.378906 17.320312 C 17.378906 17.886719 17.027344 18.398438 16.5 18.601562 L 16.5 20 L 15.5 20 L 15.5 18.601562 C 14.984375 18.402344 14.621094 17.902344 14.621094 17.320312 M 19.5 15.5 L 12.5 15.5 L 12.5 20.5 L 19.5 20.5 L 19.5 19.5 L 18.5 19.5 L 18.5 18.5 L 19.5 18.5 L 19.5 17.5 L 18.5 17.5 L 18.5 16.5 L 19.5 16.5 Z M 13.5 14.5 L 18.5 14.5 L 18.5 12.5 C 18.5 12.066406 18.210938 11.570312 17.726562 11.171875 C 17.222656 10.75 16.574219 10.5 16 10.5 C 14.808594 10.5 13.5 11.546875 13.5 12.5 Z M 19.5 12.5 L 19.5 14.5 L 20 14.5 C 20.277344 14.5 20.5 14.722656 20.5 15 L 20.5 21 C 20.5 21.277344 20.277344 21.5 20 21.5 L 12 21.5 C 11.867188 21.5 11.738281 21.449219 11.644531 21.355469 C 11.550781 21.261719 11.5 21.132812 11.5 21 L 11.5 15 C 11.5 14.722656 11.722656 14.5 12 14.5 L 12.5 14.5 L 12.5 12.5 C 12.5 10.984375 14.234375 9.5 16 9.5 C 16.8125 9.5 17.675781 9.828125 18.367188 10.402344 C 19.085938 10.996094 19.5 11.761719 19.5 12.5 M 7.746094 21.976562 L 8.554688 21.386719 C 7.519531 19.960938 6.925781 18.261719 6.839844 16.5 L 8 16.5 L 8 15.5 L 6.839844 15.5 C 6.929688 13.746094 7.523438 12.058594 8.554688 10.640625 L 7.746094 10.054688 C 6.59375 11.644531 5.929688 13.539062 5.839844 15.5 L 5 15.5 L 5 16.5 L 5.839844 16.5 C 5.921875 18.472656 6.585938 20.378906 7.746094 21.976562 M 21.375 23.460938 C 19.949219 24.492188 18.257812 25.085938 16.5 25.175781 L 16.5 24 L 15.5 24 L 15.5 25.175781 C 13.742188 25.085938 12.050781 24.492188 10.625 23.460938 L 10.039062 24.269531 C 11.632812 25.425781 13.53125 26.085938 15.5 26.175781 L 15.5 27 L 16.5 27 L 16.5 26.175781 C 18.464844 26.085938 20.363281 25.421875 21.960938 24.269531 Z M 10.625 8.570312 C 12.050781 7.539062 13.742188 6.941406 15.5 6.851562 L 15.5 8 L 16.5 8 L 16.5 6.851562 C 18.257812 6.941406 19.949219 7.539062 21.375 8.570312 L 21.960938 7.761719 C 20.367188 6.605469 18.46875 5.941406 16.5 5.851562 L 16.5 5 L 15.5 5 L 15.5 5.851562 C 13.53125 5.941406 11.632812 6.605469 10.039062 7.761719 Z M 26.160156 15.5 C 26.070312 13.539062 25.40625 11.644531 24.253906 10.054688 L 23.445312 10.640625 C 24.472656 12.0625 25.066406 13.75 25.160156 15.5 L 24 15.5 L 24 16.5 L 25.160156 16.5 C 25.074219 18.261719 24.480469 19.960938 23.445312 21.386719 L 24.253906 21.976562 C 25.410156 20.375 26.074219 18.472656 26.160156 16.5 L 27 16.5 L 27 15.5 Z M 22.511719 10.207031 L 25.59375 7.128906 L 24.886719 6.421875 L 21.804688 9.5 Z M 9.484375 21.820312 L 6.40625 24.902344 L 7.113281 25.609375 L 10.191406 22.527344 Z M 11.621094 10.917969 L 5.792969 5.085938 L 5.085938 5.792969 L 10.914062 11.625 Z M 21.652344 20.945312 L 26.914062 26.207031 L 26.207031 26.914062 L 20.945312 21.652344 Z M 21.652344 20.945312 "/>
</svg>

<svg role="img" viewBox="0 0 32 32" height="32" width="32" xmlns="http://www.w3.org/2000/svg"><defs><linearGradient gradientTransform="scale(32)" gradientUnits="userSpaceOnUse" id="485__484__330__329__61__60__334__333__329__328__33__32__243__242__139__138__217__216__59__58__aws-secrets-manager_svg__svg/aws-secrets-manager.svg435__svg/aws-secrets-manager.svg433__aws-secrets-manager-lp-0" x1="0" x2="1" y1="1" y2="0"><stop offset="0" stop-color="rgb(74.117647%, 3.137255%, 8.627451%)"/><stop offset="1" stop-color="rgb(100%, 32.156863%, 32.156863%)"/></linearGradient></defs><path d="M-3.2-3.2h38.4v38.4H-3.2z" fill="url(#485__484__330__329__61__60__334__333__329__328__33__32__243__242__139__138__217__216__59__58__aws-secrets-manager_svg__svg/aws-secrets-manager.svg435__svg/aws-secrets-manager.svg433__aws-secrets-manager-lp-0)"/><path d="M15.621 17.32a.383.383 0 0 0 .188.336c.117.07.265.07.382 0a.37.37 0 0 0 .188-.336.386.386 0 0 0-.11-.27.39.39 0 0 0-.539 0 .388.388 0 0 0-.109.27m-1 0a1.379 1.379 0 1 1 2.758 0c0 .567-.352 1.078-.879 1.282V20h-1v-1.398c-.516-.2-.879-.7-.879-1.282M19.5 15.5h-7v5h7v-1h-1v-1h1v-1h-1v-1h1Zm-6-1h5v-2c0-.434-.29-.93-.773-1.328-.504-.422-1.153-.672-1.727-.672-1.191 0-2.5 1.047-2.5 2Zm6-2v2h.5c.277 0 .5.223.5.5v6c0 .277-.223.5-.5.5h-8a.502.502 0 0 1-.355-.145A.502.502 0 0 1 11.5 21v-6c0-.277.223-.5.5-.5h.5v-2c0-1.516 1.734-3 3.5-3 .813 0 1.676.328 2.367.902.719.594 1.133 1.36 1.133 2.098M7.746 21.977l.809-.59A9.068 9.068 0 0 1 6.84 16.5H8v-1H6.84a9.043 9.043 0 0 1 1.715-4.86l-.809-.585A10.07 10.07 0 0 0 5.84 15.5H5v1h.84a10.034 10.034 0 0 0 1.906 5.477m13.629 1.484a9.105 9.105 0 0 1-4.875 1.715V24h-1v1.176a9.105 9.105 0 0 1-4.875-1.715l-.586.809a10.077 10.077 0 0 0 5.461 1.906V27h1v-.824a10.131 10.131 0 0 0 5.46-1.906ZM10.625 8.57A9.11 9.11 0 0 1 15.5 6.85V8h1V6.852a9.11 9.11 0 0 1 4.875 1.718l.586-.808a10.082 10.082 0 0 0-5.461-1.91V5h-1v.852a10.07 10.07 0 0 0-5.46 1.91ZM26.16 15.5a10.07 10.07 0 0 0-1.906-5.445l-.809.586A9.13 9.13 0 0 1 25.16 15.5H24v1h1.16a9.068 9.068 0 0 1-1.715 4.887l.809.59A10.107 10.107 0 0 0 26.16 16.5H27v-1Zm-3.648-5.293 3.082-3.078-.707-.707L21.805 9.5ZM9.484 21.82l-3.078 3.082.707.707 3.078-3.082Zm2.137-10.902L5.793 5.086l-.707.707 5.828 5.832Zm10.031 10.027 5.262 5.262-.707.707-5.262-5.262Zm0 0" fill="rgb(100%, 100%, 100%)" fill-rule="evenodd"/></svg>
